src/pos-icons/chevron-triple-up.svg

<svg height="24" viewBox="0 0 24 24" width="24" xmlns="http://www.w3.org/2000/svg"><path d="m16.59 9.42-4.59-4.59-4.59 4.59-1.41-1.42 6-6 6 6zm0 6-4.59-4.59-4.59 4.59-1.41-1.42 6-6 6 6zm0 6-4.59-4.59-4.59 4.59-1.41-1.42 6-6 6 6z"/></svg>

<?xml version="1.0" encoding="UTF-8"?><!DOCTYPE svg PUBLIC "-//W3C//DTD SVG 1.1//EN" "http://www.w3.org/Graphics/SVG/1.1/DTD/svg11.dtd"><svg xmlns="http://www.w3.org/2000/svg" xmlns:xlink="http://www.w3.org/1999/xlink" version="1.1" id="mdi-chevron-triple-up" width="24" height="24" viewBox="0 0 24 24"><path d="M16.59,9.42L12,4.83L7.41,9.42L6,8L12,2L18,8L16.59,9.42M16.59,15.42L12,10.83L7.41,15.42L6,14L12,8L18,14L16.59,15.42M16.59,21.42L12,16.83L7.41,21.42L6,20L12,14L18,20L16.59,21.42Z" /></svg>
